X:1
T:Title
%%score { ( 1 2 ) | ( 3 4 ) }
L:1/8
M:4/4
K:Eb
V:1 treble nm="Grand Piano"
V:2 treble 
V:3 bass 
V:4 bass 
V:1
 z4 z2[Q:1/4=100] z z/ F/ | GGG[DF] [EG] [GB]2 [GB] | [Ac][B,GB][B,GB][B,EG] [B,DF]3 [G,B,E] | %3
 [B,EG][B,EG][B,EG][B,DF] [B,EG] [EGB]2 [EAc] | [EGB][EG][DG][DF] E3 E | cccB c e2 c | cBBG B3 B | %7
 cccB c e2 c |[M:3/4] cB BG [DF]2 |[M:1/4] [DB][DB] |[M:4/4] B,3- [A,B,F] [G,B,E]2 [B,EG][B,EB] | %11
 [DF]3 [EG] [B,DF]2 [B,EG][EGB] | ccce [Ac][GB][GB][EG] |[M:3/4] [DF]4 [B,E]2 |] %14
V:2
 z4 z2 E2 | x8 | x8 | x8 | x8 | x8 | x8 | x8 |[M:3/4] x6 |[M:1/4] x2 |[M:4/4] [G,E]4 z4 | B,4 z4 | %12
 x8 |[M:3/4] x6 |] %14
V:3
 z4 z2 z z/ A,/ | [E,B,E][E,B,E][E,B,E][B,,B,] [E,B,] [E,E]2 [E,E] | [E,E]E,E,E, B,,3 E, | %3
 E,E,E,B,, E, E,2 A,, | B,,[B,,B,][B,,B,][B,,A,] [E,G,]3 [E,G,] | %5
 [A,E][A,E][A,E][E,G,E] [A,E] [A,CE]2 [A,E] | [E,A,E][E,G,E][E,G,E][E,B,E] [E,G,E]3 [E,G,E] | %7
 [A,E][A,E][A,E][E,G,E] [A,E] [A,CE]2 [A,E] |[M:3/4] [E,A,E][E,G,E] [E,G,E][E,B,E] [B,,B,]2 | %9
[M:1/4] [B,,F,][B,,A,] |[M:4/4] E,E,E,E, E,E,E,G,, | B,,B,,B,,B,, B,,B,,E,E, | %12
 [A,EA][A,EA][A,EA][A,CA][K:bass] [E,E][E,E][E,E][E,B,] |[M:3/4] [B,,A,]4 [E,G,]2 |] %14
V:4
 z4 z2 G,2 | x8 | x8 | x8 | x8 | x8 | x8 | x8 |[M:3/4] x6 |[M:1/4] x2 |[M:4/4] x8 | x8 | %12
 x4[K:bass] x4 |[M:3/4] x6 |] %14

